!!! OTL: Berkowitz461
!!! Chapter: 1
!!! Section: IV
!!! Page: 115
!!! Mode: 
!!! Encoder: DJB
**kern
*staff1
*I"Piano
=1-
*clefG2
*k[b-e-a-d-]
*A-:
*M4/4
8c/L
8e-/
8a-/
8b-/J
8cc\L
8a-\
8ff\
8ddn\J
=2
8ee-\L
8a-\
8dd-\
8bn\J
8cc\L
8a-\J
4e-/
=3
8r
16e-/LL
16f/JJ
8e-/L
8dd-/J
16e-/LL
16f/J
8e-/J
8cc/L
16d-/L
16e-/JJ
=4
8d-/L
[8b-/
8b-/]
8a-/J
8g/L
8f/J
4en/
=5
8c/L
8f/
8a-/
8cc/J
8dd-\L
8b-\
8ff\
8dd-\J
=6
!!linebreak:original
8cc/L
8f/
8b-/
8a-/J
8g/L
8f/J
4en/
=7
8r
16e-/LL
16f/JJ
8e-/L
8cc/J
16f/LL
16g/J
8f/J
8dd-\L
16g\L
16a-\JJ
=8
8g\L
[8ee-\
8ee-\]
8ff\J
16ee-\LL
16dd-\
16cc\
16b-\JJ
4a-/
==
*-
